X:11052
T:Molly Bawn
R:reel
S:Tommy Peoples & Dermot Byrnes
H:
N:
D:Concert, Galway 
Z:Adrian Scahill
M:4/4
L:1/8
K:Dmin
Gdd^c d2=cB|AFcF dFcA|Gdd^c d2ge|fdcA dcBA|\
Gdd^c d2=cB|AFcF dFcA|Gdd^c d2ge|fdcA BGG2|\
g2dg g2ag|fdd2 f3a|g2dg g2ag|fdcA BGG2|\
g2dg g2ag|fdd2 f3g|a2ag fage|fdcA G4||
